src/assets/filled/Backward10Seconds.svg

<svg width="24" height="24" viewBox="0 0 24 24"  xmlns="http://www.w3.org/2000/svg">
<path d="M9.54004 16.6701C9.13004 16.6701 8.79004 16.3301 8.79004 15.9201V12.5301L8.60004 12.7501C8.32004 13.0601 7.85004 13.0801 7.54004 12.8101C7.23004 12.5301 7.21004 12.0601 7.48004 11.7501L8.98004 10.0801C9.19004 9.85008 9.52004 9.77008 9.81004 9.88008C10.1 9.99008 10.29 10.2701 10.29 10.5801V15.9301C10.29 16.3401 9.96004 16.6701 9.54004 16.6701Z" />
<path d="M12.0001 3.47998C11.9201 3.47998 11.8401 3.48998 11.7601 3.48998L12.5801 2.46998C12.8401 2.14998 12.7901 1.66998 12.4601 1.41998C12.1401 1.15998 11.6701 1.20998 11.4101 1.53998L9.44012 3.99998C9.43012 4.00998 9.43012 4.01998 9.42012 4.03998C9.39012 4.07998 9.37012 4.12998 9.35012 4.16998C9.33012 4.21998 9.31012 4.25998 9.30012 4.29998C9.29012 4.34998 9.29012 4.38998 9.29012 4.43998C9.29012 4.48998 9.29012 4.53998 9.29012 4.58998C9.29012 4.60998 9.29012 4.61998 9.29012 4.63998C9.30012 4.66998 9.32012 4.68998 9.33012 4.72998C9.35012 4.77998 9.36012 4.81998 9.39012 4.85998C9.42012 4.89998 9.45012 4.93998 9.49012 4.97998C9.51012 4.99998 9.53012 5.02998 9.55012 5.04998C9.56012 5.05998 9.58012 5.05998 9.59012 5.06998C9.62012 5.08998 9.65012 5.10998 9.69012 5.11998C9.74012 5.14998 9.79012 5.16998 9.84012 5.17998C9.88012 5.19998 9.91012 5.19998 9.95012 5.19998C9.98012 5.19998 10.0001 5.20998 10.0301 5.20998C10.0501 5.20998 10.0801 5.19998 10.1001 5.18998C10.1301 5.18998 10.1601 5.18998 10.2001 5.18998C10.8401 5.03998 11.4401 4.96998 12.0101 4.96998C16.5001 4.96998 20.1501 8.61998 20.1501 13.11C20.1501 17.6 16.5001 21.25 12.0101 21.25C7.52012 21.25 3.87012 17.6 3.87012 13.11C3.87012 11.37 4.44012 9.68998 5.52012 8.24998C5.77012 7.91998 5.70012 7.44998 5.37012 7.19998C5.04012 6.94998 4.57012 7.01998 4.32012 7.34998C3.04012 9.04998 2.37012 11.04 2.37012 13.11C2.37012 18.42 6.69012 22.75 12.0101 22.75C17.3301 22.75 21.6501 18.43 21.6501 13.11C21.6501 7.78998 17.3101 3.47998 12.0001 3.47998Z" />
<path d="M14 16.6701C12.48 16.6701 11.25 15.4401 11.25 13.9201V12.5701C11.25 11.0501 12.48 9.82007 14 9.82007C15.52 9.82007 16.75 11.0501 16.75 12.5701V13.9201C16.75 15.4401 15.52 16.6701 14 16.6701ZM14 11.3301C13.31 11.3301 12.75 11.8901 12.75 12.5801V13.9301C12.75 14.6201 13.31 15.1801 14 15.1801C14.69 15.1801 15.25 14.6201 15.25 13.9301V12.5801C15.25 11.8901 14.69 11.3301 14 11.3301Z" />
</svg>

<?xml version="1.0" encoding="UTF-8"?>
<svg width="24" height="24" viewBox="0 0 24 24" xmlns="http://www.w3.org/2000/svg">
 <path d="m9.54 16.67c-0.41 0-0.75-0.34-0.75-0.75v-3.39l-0.19 0.22c-0.28 0.31-0.75 0.33-1.06 0.06-0.31-0.28-0.33-0.75-0.06-1.06l1.5-1.67c0.21-0.23002 0.54-0.31002 0.83-0.20002 0.28996 0.11 0.47996 0.39002 0.47996 0.70002v5.35c0 0.41-0.32996 0.74-0.74996 0.74z"/>
 <path d="m12 3.48c-0.08 0-0.16 0.01-0.24 0.01l0.82-1.02c0.26-0.32 0.21-0.8-0.12-1.05-0.32-0.26-0.79-0.21-1.05 0.12l-1.97 2.46c-0.01 0.01-0.01 0.02-0.02 0.04-0.03 0.04-0.05 0.09-0.07 0.13-0.02 0.05-0.04 0.09-0.05 0.13-0.01 0.05-0.01 0.09-0.01 0.14v0.15 0.05c0.01 0.03 0.03 0.05 0.04 0.09 0.02 0.05 0.03 0.09 0.06 0.13s0.06 0.08 0.1 0.12c0.02 0.02 0.04 0.05 0.06 0.07 0.01 0.01 0.03 0.01 0.04 0.02 0.03 0.02 0.06 0.04 0.1 0.05 0.05 0.03 0.1 0.05 0.15 0.06 0.04 0.02 0.07 0.02 0.11 0.02 0.03 0 0.04998 0.01 0.07998 0.01 0.02 0 0.05-0.01 0.07-0.02h0.1c0.64-0.15 1.24-0.22 1.81-0.22 4.49 0 8.14 3.65 8.14 8.14 0 4.49-3.65 8.14-8.14 8.14-4.49 0-8.14-3.65-8.14-8.14 0-1.74 0.57-3.42 1.65-4.86 0.25-0.33 0.18-0.8-0.15-1.05s-0.8-0.18-1.05 0.15c-1.28 1.7-1.95 3.69-1.95 5.76 0 5.31 4.32 9.64 9.64 9.64 5.32 0 9.64-4.32 9.64-9.64 0-5.32-4.34-9.63-9.65-9.63z"/>
 <path d="m14 16.67c-1.52 0-2.75-1.23-2.75-2.75v-1.35c0-1.52 1.23-2.75 2.75-2.75s2.75 1.23 2.75 2.75v1.35c0 1.52-1.23 2.75-2.75 2.75zm0-5.34c-0.69 0-1.25 0.56-1.25 1.25v1.35c0 0.69 0.56 1.25 1.25 1.25s1.25-0.56 1.25-1.25v-1.35c0-0.69-0.56-1.25-1.25-1.25z"/>
</svg>
